X: 203
T:Compliments to Finlay Allison
C:Nigel Gatherer
Z:https://nigelgatherer.com/
M:6/8
L: 1/8
K:D
A2f fga | gec ABc | dAd eAe | fAf efg |
f3 fga | gec ABc | dAd ecA |1 GFE D3 :|2 GFE DEF ||
E2A cBA | egg gfe | dfd AdA | FAF DEF |
E2A cBA | egg gfe | faf gec |1 d3 DEF :|2 d3 d3 |]

